X: 41666
T: Upperchurch, The
R: polka
M: 2/4
K: Gmajor
|:B/A/|GD GA|B2 B/c/B/A/|GD GA|B2 B^c/d/|
ed BG|A2 AB/d/|ed B/c/B/A/|G2 G:|
|:B/d/|gg/a/ ge|ff/g/ fd|e^d/e/ f/g/f/e/|d2 d^c/d/|
ed BG|A2 AB/d/|1 ed B/c/B/A/|G2 G:|2 ed BA|G2- G||

